X: 288
T: Jiemei lia
%%abc-version 2.0
%%abcx-abcm2ps-target-version 5.9.1 (29 Sep 2008)
%%abc-creator hum2abc beta
%%abcx-conversion-date 2013/10/02 07:52:29
%%abc-edited-by Helmut Schaffrath
%%humdrum-veritas 2456765891
%%humdrum-veritas-data 807623851
%%continueall 1
%%barnumbers 0
L: 1/8
M: 3/4
K: Bb
d' d'/ d'/ d' g [I:setbarnb 1]| 
d'> f'd'2 | 
d' d'/ f'/ g'/ f'/ d'/ c'/ | 
d'> c' d'/ c'/ b b z | 
[M:2/4]d' d'/ f'/ d' g | 
g> d' d' g | 
g> d' d' g | 
f/ g/d3 | 
d' d'/ c'/ d' a | 
g/ a/ g/ f/d2 | 
d' d'/ f'/ a a | 
g/ a/ g/ f/d2 | 
d' d' a a | 
g> ad2 | 
b> c' d' d' | 
b> c' d' f' | 
d' c' b g | 
d' d'/ c'< a c'/ | 
a gf2 |]  



